X: 1
T: The Rifleman
M: C|
L: 1/8
Z: John Chambers <jc:trillian.mit.edu>
K: D
dc \
| "Bm"B2cA BAFA | Bd"A7"cA "D"d2cd | "Bm"B2cA BAFA | "A7"afef "D"d2 :|
|: de \
| "D"f2fe fddb | "A7"afef "D"d2de | "D"fgfe fddb | "A7"afef "D"d2 :|
